; generated by PrusaSlicer 2.2.0+win32 on 2020-05-13 at 02:25:24 UTC

; 

; external perimeters extrusion width = 0.45mm
; perimeters extrusion width = 0.45mm
; infill extrusion width = 0.45mm
; solid infill extrusion width = 0.45mm
; top infill extrusion width = 0.40mm
; support material extrusion width = 0.35mm
; first layer extrusion width = 0.42mm

M73 P0 R38
M73 Q0 S38
M201 X1000 Y1000 Z1000 E5000 ; sets maximum accelerations, mm/sec^2
M203 X200 Y200 Z12 E120 ; sets maximum feedrates, mm/sec
M204 P1250 R1250 T1250 ; sets acceleration (P, T) and retract acceleration (R), mm/sec^2
M205 X8.00 Y8.00 Z0.40 E4.50 ; sets the jerk limits, mm/sec
M205 S0 T0 ; sets the minimum extruding and travel feed rate, mm/sec
M107
M862.3 P "MK3" ; printer model check
M862.1 P0.4 ; nozzle diameter check
M115 U3.8.1 ; tell printer latest fw version
G90 ; use absolute coordinates
M83 ; extruder relative mode
M104 S215 ; set extruder temp
M140 S60 ; set bed temp
M190 S60 ; wait for bed temp
M109 S215 ; wait for extruder temp
G28 W ; home all without mesh bed level
G80 ; mesh bed leveling
G1 Y-3.0 F1000.0 ; go outside print area
G92 E0.0
G1 X60.0 E9.0 F1000.0 ; intro line
M73 Q0 S38
M73 P0 R38
G1 X100.0 E12.5 F1000.0 ; intro line
G92 E0.0
;M221 S95
G21 ; set units to millimeters
G90 ; use absolute coordinates
M83 ; use relative distances for extrusion
M900 K30 ; Filament gcode
;BEFORE_LAYER_CHANGE
G92 E0.0
;0.2


G1 E-0.80000 F2100.00000
G1 Z0.600 F10800.000
;AFTER_LAYER_CHANGE
;0.2
G1 X111.293 Y77.244
G1 Z0.200
G1 E0.80000 F2100.00000
M204 S1000
G1 F1200.000
G1 X111.894 Y76.826 E0.02296
G1 X112.381 Y76.652 E0.01621
G1 X112.894 Y76.588 E0.01621
G1 X135.563 Y76.418 E0.71080
G1 X137.397 Y76.610 E0.05780
G1 X137.923 Y76.747 E0.01704
G1 X138.618 Y77.164 E0.02543
G1 X139.135 Y77.794 E0.02555
G1 X146.294 Y91.859 E0.49485
G1 X148.422 Y99.148 E0.23808
G1 X148.494 Y99.718 E0.01799
G1 X148.475 Y110.738 E0.34554
G1 X146.048 Y118.109 E0.24332
G1 X139.299 Y132.138 E0.48811
G1 X138.820 Y132.769 E0.02484
G1 X138.157 Y133.209 E0.02496
G1 X137.229 Y133.413 E0.02977
G1 X113.690 Y133.582 E0.73808
G1 X111.891 Y133.229 E0.05746
G1 X111.201 Y132.789 E0.02567
G1 X110.704 Y132.143 E0.02555
G1 X103.989 Y118.193 E0.48543
G1 X101.552 Y110.903 E0.24102
G1 X101.521 Y99.462 E0.35872
G1 X103.692 Y91.891 E0.24693
G1 X110.845 Y77.828 E0.49470
G1 X111.256 Y77.292 E0.02119
G1 F8640.000
G1 X111.894 Y76.826 E-0.18231
G1 X112.381 Y76.652 E-0.11938
G1 X112.894 Y76.588 E-0.11938
G1 X114.362 Y76.577 E-0.33893
G1 E-0.04000 F2100.00000
G1 Z0.800 F10800.000
G1 X119.721 Y98.027
G1 Z0.200
G1 E0.80000 F2100.00000
G1 F1200.000
G1 X119.721 Y98.737 E0.02226
G1 X120.369 Y98.737 E0.02031
G1 X120.475 Y98.681 E0.00376
G1 X120.475 Y97.713 E0.03035
G1 X121.229 Y97.277 E0.02731
G1 X121.229 Y98.291 E0.03178
G1 X121.983 Y97.900 E0.02663
G1 X121.983 Y96.975 E0.02899
G1 X122.456 Y96.789 E0.01594
G1 X122.738 Y96.725 E0.00904
G1 X122.738 Y97.700 E0.03059
G1 F8640.000
G1 X122.738 Y96.725 E-0.22524
G1 X122.456 Y96.789 E-0.06659
G1 X121.983 Y96.975 E-0.11739
G1 X121.983 Y97.900 E-0.21349
G1 X121.455 Y98.173 E-0.13729
G1 E-0.04000 F2100.00000
G1 Z0.800 F10800.000
G1 X124.994 Y92.848
G1 X125.000 Y96.236
G1 Z0.200
G1 E0.80000 F2100.00000
G1 F1200.000
G1 X125.000 Y96.599 E0.01138
G1 X127.262 Y96.553 F10800.000
G1 F1200.000
G1 X127.262 Y97.515 E0.03018
G1 X128.017 Y97.906 E0.02663
G1 X128.017 Y96.979 E0.02907
G1 X128.729 Y97.260 E0.02401
G1 X128.771 Y97.284 E0.00150
G1 X128.771 Y98.297 E0.03178
G1 X129.525 Y98.688 E0.02663
G1 X129.525 Y97.719 E0.03038
G1 X129.843 Y97.904 E0.01152
G1 X130.279 Y98.252 E0.01750
G1 X130.279 Y98.906 E0.02053
G1 F8640.000
G1 X130.279 Y98.252 E-0.15117
G1 X129.843 Y97.904 E-0.12890
G1 X129.525 Y97.719 E-0.08484
G1 X129.525 Y98.688 E-0.22370
G1 X128.866 Y98.346 E-0.17139
G1 E-0.04000 F2100.00000
G1 Z0.800 F10800.000
G1 X134.118 Y96.811
G1 X131.787 Y99.470
G1 Z0.200
G1 E0.80000 F2100.00000
G1 F1200.000
G1 X131.787 Y101.137 E0.05226
G1 X132.100 Y101.651 E0.01886
G1 X132.542 Y102.667 E0.03475
G1 X132.542 Y100.916 E0.05490
G1 X132.996 Y101.864 E0.03294
G1 X133.296 Y102.832 E0.03177
G1 X133.296 Y103.520 E0.02160
G1 F8640.000
G1 X133.296 Y102.832 E-0.15905
G1 X132.996 Y101.864 E-0.23400
G1 X132.542 Y100.916 E-0.24257
G1 X132.542 Y101.455 E-0.12438
G1 E-0.04000 F2100.00000
G1 Z0.800 F10800.000
G1 X136.835 Y109.238
G1 X133.296 Y107.736
G1 Z0.200
G1 E0.80000 F2100.00000
G1 F1200.000
G1 X133.296 Y106.649 E0.03409
G1 X133.128 Y106.649 E0.00527
G1 X132.542 Y107.998 E0.04612
G1 X132.542 Y109.079 E0.03387
G1 X132.442 Y109.289 E0.00729
G1 X131.787 Y110.249 E0.03644
G1 X131.787 Y109.203 E0.03281
G1 F8640.000
G1 X131.787 Y110.249 E-0.24161
G1 X132.442 Y109.289 E-0.26836
G1 X132.542 Y109.079 E-0.05365
G1 X132.542 Y108.228 E-0.19638
G1 E-0.04000 F2100.00000
G1 Z0.800 F10800.000
G1 X132.873 Y115.018
G1 X130.279 Y111.964
G1 Z0.200
G1 E0.80000 F2100.00000
G1 F1200.000
G1 X130.279 Y111.376 E0.01842
G1 X129.525 Y111.908 E0.02894
G1 X129.525 Y112.280 E0.01165
G1 X128.771 Y112.716 E0.02731
G1 X128.771 Y112.369 E0.01087
G1 X128.017 Y112.760 E0.02663
G1 X128.017 Y113.020 E0.00816
G1 X127.531 Y113.211 E0.01635
G1 X127.262 Y113.273 E0.00865
G1 X127.262 Y112.959 E0.00982
G1 F8640.000
G1 X127.262 Y113.273 E-0.07229
G1 X127.531 Y113.211 E-0.06369
G1 X128.017 Y113.020 E-0.12043
G1 X128.017 Y112.760 E-0.06008
G1 X128.771 Y112.369 E-0.19613
G1 X128.771 Y112.716 E-0.08003
G1 X129.398 Y112.353 E-0.16735
G1 E-0.04000 F2100.00000
G1 Z0.800 F10800.000
G1 X125.280 Y117.798
G1 X125.000 Y113.764
G1 Z0.200
G1 E0.80000 F2100.00000
G1 F1200.000
G1 X125.000 Y113.401 E0.01138
G1 X122.738 Y113.450 F10800.000
G1 F1200.000
G1 X122.738 Y113.157 E0.00919
G1 X121.983 Y112.766 E0.02663
G1 X121.983 Y113.026 E0.00814
G1 X121.229 Y112.724 E0.02547
G1 X121.229 Y112.375 E0.01092
G1 X120.835 Y112.171 E0.01391
G1 X120.475 Y111.917 E0.01383
G1 X120.475 Y112.288 E0.01164
G1 X120.145 Y112.096 E0.01196
G1 X119.721 Y111.758 E0.01701
G1 X119.721 Y111.177 E0.01823
G1 F8640.000
G1 X119.721 Y111.758 E-0.13423
G1 X120.145 Y112.096 E-0.12528
G1 X120.475 Y112.288 E-0.08810
G1 X120.475 Y111.917 E-0.08572
G1 X120.835 Y112.171 E-0.10185
G1 X121.229 Y112.375 E-0.10241
G1 X121.229 Y112.724 E-0.08040
G1 X121.398 Y112.791 E-0.04199
G1 E-0.04000 F2100.00000
G1 Z0.800 F10800.000
G1 X114.794 Y112.533
G1 X118.213 Y110.543
G1 Z0.200
G1 E0.80000 F2100.00000
G1 F1200.000
G1 X118.213 Y109.549 E0.03116
G1 X117.888 Y109.015 E0.01960
G1 X117.458 Y108.027 E0.03379
G1 X117.458 Y109.109 E0.03394
G1 X116.992 Y108.136 E0.03382
G1 X116.704 Y107.208 E0.03047
G1 X116.704 Y106.480 E0.02284
G1 F8640.000
G1 X116.704 Y107.208 E-0.16822
G1 X116.992 Y108.136 E-0.22441
G1 X117.458 Y109.109 E-0.24908
G1 X117.458 Y108.597 E-0.11829
G1 E-0.04000 F2100.00000
G1 Z0.800 F10800.000
G1 X113.230 Y101.152
G1 X116.704 Y102.224
G1 Z0.200
G1 E0.80000 F2100.00000
G1 F1200.000
G1 X116.704 Y103.351 E0.03533
G1 X117.149 Y103.351 E0.01396
G1 X117.458 Y102.639 E0.02432
G1 X117.458 Y100.896 E0.05466
G1 X117.546 Y100.711 E0.00640
G1 X118.213 Y99.733 E0.03712
G1 X118.213 Y101.443 E0.05362
G1 F8640.000
G1 X118.213 Y99.733 E-0.39487
G1 X117.546 Y100.711 E-0.27337
G1 X117.458 Y100.896 E-0.04714
G1 X117.458 Y101.089 E-0.04461
G1 E-0.04000 F2100.00000
G1 Z0.800 F10800.000
G1 X103.884 Y110.442
G1 Z0.200
G1 E0.80000 F2100.00000
G1 F1200.000
G1 X103.884 Y99.728 E0.33592
G1 X104.638 Y99.728 E0.02365
G1 X104.638 Y110.272 E0.33060
G1 X105.392 Y110.272 E0.02365
G1 X105.392 Y99.728 E0.33060
G1 X105.886 Y99.728 E0.01548
G1 X105.886 Y92.807 E0.21701
G1 X106.146 Y92.807 E0.00817
G1 X106.146 Y117.193 E0.76462
G1 X106.900 Y117.193 E0.02365
G1 X106.900 Y92.807 E0.76462
G1 X107.654 Y92.807 E0.02365
G1 X107.654 Y117.193 E0.76462
G1 X108.193 Y117.193 E0.01688
G1 X108.193 Y119.500 E0.07234
G1 X108.409 Y119.500 E0.00677
G1 X108.409 Y90.500 E0.90929
G1 X109.163 Y90.500 E0.02365
G1 X109.163 Y119.500 E0.90929
G1 X109.917 Y119.500 E0.02365
G1 X109.917 Y90.500 E0.90929
G1 X110.500 Y90.500 E0.01827
G1 X110.500 Y88.193 E0.07234
G1 X110.671 Y88.193 E0.00537
G1 X110.671 Y121.807 E1.05397
G1 X111.425 Y121.807 E0.02365
G1 X111.425 Y88.193 E1.05397
G1 X112.179 Y88.193 E0.02365
G1 X112.179 Y121.807 E1.05397
G1 X112.807 Y121.807 E0.01967
G1 X112.807 Y131.036 E0.28935
G1 X112.933 Y131.036 E0.00397
G1 X112.933 Y78.964 E1.63266
G1 X113.688 Y78.964 E0.02365
G1 X113.688 Y131.205 E1.63798
G1 F8640.000
G1 X113.688 Y127.914 E-0.76000
G1 E-0.04000 F2100.00000
G1 Z0.800 F10800.000
G1 X146.116 Y110.442
G1 Z0.200
G1 E0.80000 F2100.00000
G1 F1200.000
G1 X146.116 Y99.728 E0.33592
G1 X145.362 Y99.728 E0.02365
G1 X145.362 Y110.272 E0.33060
G1 X144.608 Y110.272 E0.02365
G1 X144.608 Y99.728 E0.33060
G1 X144.114 Y99.728 E0.01548
G1 X144.114 Y92.807 E0.21701
G1 X143.854 Y92.807 E0.00817
G1 X143.854 Y117.193 E0.76462
G1 X143.100 Y117.193 E0.02365
G1 X143.100 Y92.807 E0.76462
G1 X142.346 Y92.807 E0.02365
G1 X142.346 Y117.193 E0.76462
G1 X141.807 Y117.193 E0.01688
G1 X141.807 Y119.500 E0.07234
G1 X141.591 Y119.500 E0.00677
G1 X141.591 Y90.500 E0.90929
G1 X140.837 Y90.500 E0.02365
G1 X140.837 Y119.500 E0.90929
G1 X140.083 Y119.500 E0.02365
G1 X140.083 Y90.500 E0.90929
G1 X139.500 Y90.500 E0.01828
G1 X139.500 Y88.193 E0.07234
G1 X139.329 Y88.193 E0.00537
G1 X139.329 Y121.807 E1.05397
G1 X138.575 Y121.807 E0.02365
G1 X138.575 Y88.193 E1.05397
G1 X137.821 Y88.193 E0.02365
G1 X137.821 Y121.807 E1.05397
G1 X137.193 Y121.807 E0.01967
G1 X137.193 Y131.036 E0.28935
G1 X137.067 Y131.036 E0.00397
G1 X137.067 Y78.964 E1.63266
M73 Q2 S37
M73 P2 R37
G1 X136.312 Y78.964 E0.02365
G1 X136.312 Y131.036 E1.63266
G1 X135.558 Y131.036 E0.02365
G1 X135.558 Y107.916 E0.72490
G1 X135.254 Y108.994 E0.03513
G1 X134.804 Y110.030 E0.03542
G1 X134.804 Y131.036 E0.65861
G1 X134.050 Y131.036 E0.02365
G1 X134.050 Y111.361 E0.61690
G1 X133.886 Y111.627 E0.00981
G1 X133.296 Y112.352 E0.02931
G1 X133.296 Y131.036 E0.58581
G1 X132.542 Y131.036 E0.02365
G1 X132.542 Y113.157 E0.56059
G1 X131.787 Y113.842 E0.03196
G1 X131.787 Y131.036 E0.53909
G1 X131.033 Y131.036 E0.02365
G1 X131.033 Y114.375 E0.52240
G1 X130.666 Y114.634 E0.01409
G1 X130.279 Y114.836 E0.01370
G1 X130.279 Y131.036 E0.50792
G1 X129.525 Y131.036 E0.02365
G1 X129.525 Y115.227 E0.49567
G1 X129.321 Y115.331 E0.00717
G1 X128.771 Y115.526 E0.01831
G1 X128.771 Y131.036 E0.48629
G1 X128.017 Y131.036 E0.02365
G1 X128.017 Y115.794 E0.47789
G1 X127.262 Y115.963 E0.02423
G1 X127.262 Y131.036 E0.47259
G1 X126.508 Y131.036 E0.02365
G1 X126.508 Y116.120 E0.46767
G1 X125.754 Y116.176 E0.02371
G1 X125.754 Y131.036 E0.46592
G1 X125.000 Y131.036 E0.02365
G1 X125.000 Y116.227 E0.46432
G1 X124.246 Y116.177 E0.02370
G1 X124.246 Y131.036 E0.46589
G1 X123.492 Y131.036 E0.02365
G1 X123.492 Y116.122 E0.46759
G1 X122.738 Y115.966 E0.02415
G1 X122.738 Y131.036 E0.47251
G1 X121.983 Y131.036 E0.02365
G1 X121.983 Y115.799 E0.47775
G1 X121.229 Y115.531 E0.02510
G1 X121.229 Y131.036 E0.48615
G1 X120.475 Y131.036 E0.02365
G1 X120.475 Y115.233 E0.49547
G1 X119.721 Y114.843 E0.02663
G1 X119.721 Y131.036 E0.50772
G1 X118.967 Y131.036 E0.02365
G1 X118.967 Y114.383 E0.52213
G1 X118.213 Y113.851 E0.02894
G1 X118.213 Y131.036 E0.53882
G1 X117.458 Y131.036 E0.02365
G1 X117.458 Y113.168 E0.56023
G1 X117.042 Y112.779 E0.01787
G1 X116.704 Y112.367 E0.01670
G1 X116.704 Y131.036 E0.58534
G1 X115.950 Y131.036 E0.02365
G1 X115.950 Y111.381 E0.61627
G1 X115.328 Y110.357 E0.03755
G1 X115.196 Y110.059 E0.01024
G1 X115.196 Y131.036 E0.65772
G1 X114.442 Y131.036 E0.02365
G1 X114.442 Y107.960 E0.72353
G1 X114.325 Y107.536 E0.01379
G1 X114.126 Y106.090 E0.04574
G1 X114.124 Y104.604 E0.04662
G1 X114.325 Y103.130 E0.04662
G1 X114.442 Y102.706 E0.01379
G1 X114.442 Y78.964 E0.74441
G1 X115.196 Y78.964 E0.02365
G1 X115.196 Y100.607 E0.67860
G1 X115.328 Y100.309 E0.01024
G1 X115.950 Y99.285 E0.03755
G1 X115.950 Y78.964 E0.63715
G1 X116.704 Y78.964 E0.02365
G1 X116.704 Y98.299 E0.60622
G1 X117.042 Y97.887 E0.01670
G1 X117.458 Y97.498 E0.01787
G1 X117.458 Y78.964 E0.58111
G1 X118.213 Y78.964 E0.02365
G1 X118.213 Y96.815 E0.55970
G1 X118.967 Y96.283 E0.02894
G1 X118.967 Y78.964 E0.54301
G1 X119.721 Y78.964 E0.02365
G1 X119.721 Y95.823 E0.52860
G1 X120.475 Y95.432 E0.02663
G1 X120.475 Y78.964 E0.51635
G1 X121.229 Y78.964 E0.02365
G1 X121.229 Y95.135 E0.50703
G1 X121.983 Y94.867 E0.02510
G1 X121.983 Y78.964 E0.49863
G1 X122.738 Y78.964 E0.02365
G1 X122.738 Y94.700 E0.49339
G1 X123.492 Y94.543 E0.02415
G1 X123.492 Y78.964 E0.48847
G1 X124.246 Y78.964 E0.02365
G1 X124.246 Y94.489 E0.48677
G1 X125.000 Y94.439 E0.02370
G1 X125.000 Y78.964 E0.48520
G1 X125.754 Y78.964 E0.02365
G1 X125.754 Y94.490 E0.48680
G1 X126.508 Y94.546 E0.02371
G1 X126.508 Y78.964 E0.48855
G1 X127.262 Y78.964 E0.02365
G1 X127.262 Y94.703 E0.49347
G1 X128.017 Y94.872 E0.02423
G1 X128.017 Y78.964 E0.49877
G1 X128.771 Y78.964 E0.02365
G1 X128.771 Y95.140 E0.50717
G1 X129.321 Y95.335 E0.01831
G1 X129.525 Y95.439 E0.00717
G1 X129.525 Y78.964 E0.51655
G1 X130.279 Y78.964 E0.02365
G1 X130.279 Y95.830 E0.52880
G1 X130.666 Y96.032 E0.01370
G1 X131.033 Y96.291 E0.01409
G1 X131.033 Y78.964 E0.54328
G1 X131.787 Y78.964 E0.02365
G1 X131.787 Y96.824 E0.55997
G1 X132.542 Y97.509 E0.03196
G1 X132.542 Y78.964 E0.58147
G1 X133.296 Y78.964 E0.02365
G1 X133.296 Y98.314 E0.60669
G1 X133.886 Y99.039 E0.02931
G1 X134.050 Y99.305 E0.00981
G1 X134.050 Y78.964 E0.63778
G1 X134.804 Y78.964 E0.02365
G1 X134.804 Y100.635 E0.67949
G1 X135.254 Y101.671 E0.03542
G1 X135.558 Y102.750 E0.03513
G1 X135.558 Y78.795 E0.75110
G1 F8640.000
G1 X135.558 Y82.086 E-0.76000
G1 E-0.04000 F2100.00000
G1 Z0.800 F10800.000
G1 X129.066 Y96.530
G1 Z0.200
G1 E0.80000 F2100.00000
G1 F1200.000
G1 X130.190 Y97.159 E0.04039
G1 X131.397 Y98.091 E0.04783
G1 X132.387 Y99.166 E0.04582
G1 X133.150 Y100.288 E0.04254
G1 X133.785 Y101.622 E0.04633
G1 X134.177 Y102.904 E0.04201
G1 X134.390 Y104.372 E0.04651
G1 X134.387 Y105.708 E0.04189
G1 X134.191 Y107.025 E0.04176
G1 X133.761 Y108.445 E0.04651
G1 X133.149 Y109.714 E0.04417
G1 X132.355 Y110.877 E0.04415
G1 X131.432 Y111.875 E0.04262
G1 X130.295 Y112.786 E0.04568
G1 X129.075 Y113.489 E0.04416
G1 X127.764 Y114.003 E0.04415
G1 X126.412 Y114.312 E0.04347
G1 X124.994 Y114.420 E0.04460
G1 X123.597 Y114.315 E0.04393
G1 X122.197 Y113.994 E0.04502
G1 X120.912 Y113.489 E0.04330
G1 X119.657 Y112.761 E0.04550
G1 X118.590 Y111.907 E0.04284
G1 X117.600 Y110.834 E0.04576
G1 X116.838 Y109.712 E0.04254
G1 X116.203 Y108.378 E0.04633
G1 X115.811 Y107.096 E0.04201
G1 X115.598 Y105.628 E0.04651
G1 X115.601 Y104.292 E0.04189
G1 X115.797 Y102.975 E0.04176
G1 X116.204 Y101.620 E0.04435
G1 X116.839 Y100.286 E0.04632
G1 X117.633 Y99.123 E0.04417
G1 X118.591 Y98.091 E0.04416
G1 X119.249 Y97.569 E0.02633
M73 Q5 S36
G1 X119.700 Y97.221 E0.01786
M73 P5 R36
G1 X120.922 Y96.529 E0.04403
G1 X122.206 Y96.032 E0.04314
G1 X123.601 Y95.716 E0.04487
G1 X124.994 Y95.611 E0.04380
G1 X126.405 Y95.719 E0.04437
G1 X127.629 Y95.989 E0.03929
G1 X128.178 Y96.181 E0.01823
G1 X129.010 Y96.508 E0.02803
G1 X129.399 Y96.308 F10800.000
G1 F8640.000
G1 X130.190 Y97.159 E-0.31115
G1 X131.397 Y98.091 E-0.35221
G1 X131.681 Y98.399 E-0.09665
G1 E-0.04000 F2100.00000
G1 Z0.800 F10800.000
G1 X134.267 Y108.074
G1 Z0.200
G1 E0.80000 F2100.00000
G1 F1200.000
G1 X134.126 Y108.578 E0.01641
G1 X133.599 Y109.792 E0.04147
G1 X132.912 Y110.922 E0.04147
G1 X132.077 Y111.948 E0.04147
G1 X131.110 Y112.851 E0.04147
G1 X130.029 Y113.614 E0.04147
G1 X128.855 Y114.222 E0.04147
G1 X127.609 Y114.665 E0.04147
G1 X126.314 Y114.934 E0.04147
G1 X124.994 Y115.024 E0.04147
G1 X123.674 Y114.934 E0.04147
G1 X122.379 Y114.665 E0.04147
G1 X121.133 Y114.222 E0.04147
G1 X119.958 Y113.614 E0.04147
G1 X118.878 Y112.851 E0.04147
G1 X117.911 Y111.948 E0.04147
G1 X117.076 Y110.922 E0.04147
G1 X116.389 Y109.792 E0.04147
G1 X115.862 Y108.578 E0.04147
G1 X115.773 Y108.260 E0.01037
G1 X115.924 Y108.691 E0.01432
G1 X116.510 Y109.901 E0.04216
G1 X117.304 Y111.069 E0.04429
G1 X118.332 Y112.184 E0.04754
G1 X119.439 Y113.069 E0.04445
G1 X120.748 Y113.830 E0.04747
G1 X122.086 Y114.356 E0.04506
G1 X123.540 Y114.689 E0.04680
