;Generated by Cura LulzBot Edition GCodeWriter Version: 3.6.20
;FLAVOR:Marlin
;TIME:4438
;Filament used: 5.52527m
;Layer height: 0.4
;Generated with Cura_SteamEngine 3.6.20
M82 ;absolute extrusion mode
;This G-Code has been generated specifically for the LulzBot TAZ 6 with MOARstruder
M73 P0 ; clear GLCD progress bar
M75 ; start GLCD timer
G26 ; clear potential 'probe fail' condition
M107 ; disable fans
M420 S0 ; disable previous leveling matrix
G90 ; absolute positioning
M82 ; set extruder to absolute mode
G92 E0 ; set extruder position to 0
M140 S60.0 ; start bed heating up
M109 R170 ; soften filament before homing Z
G28 ; Home all axis
G1 E-30 F100 ; retract filament
M109 R160 ; wait for extruder to reach wiping temp
G1 X-15 Y100 F3000 ; move above wiper pad
G1 Z1 ; push nozzle into wiper
G1 X-17 Y95 F1000 ; slow wipe
G1 X-17 Y90 F1000 ; slow wipe
G1 X-17 Y85 F1000 ; slow wipe
G1 X-15 Y90 F1000 ; slow wipe
G1 X-17 Y80 F1000 ; slow wipe
G1 X-15 Y95 F1000 ; slow wipe
G1 X-17 Y75 F2000 ; fast wipe
G1 X-15 Y65 F2000 ; fast wipe
G1 X-17 Y70 F2000 ; fast wipe
G1 X-15 Y60 F2000 ; fast wipe
G1 X-17 Y55 F2000 ; fast wipe
G1 X-15 Y50 F2000 ; fast wipe
G1 X-17 Y40 F2000 ; fast wipe
G1 X-15 Y45 F2000 ; fast wipe
G1 X-17 Y35 F2000 ; fast wipe
G1 X-15 Y40 F2000 ; fast wipe
G1 X-17 Y70 F2000 ; fast wipe
G1 X-15 Y30 Z2 F2000 ; fast wipe
G1 X-17 Y35 F2000 ; fast wipe
G1 X-15 Y25 F2000 ; fast wipe
G1 X-17 Y30 F2000 ; fast wipe
G1 X-15 Y25 Z1.5 F1000 ; slow wipe
G1 X-17 Y23 F1000 ; slow wipe
G1 Z10 ; raise extruder
M109 R160 ; wait for extruder to reach probe temp
G1 X-9 Y-9 ; move above first probe point
M204 S100 ; set probing acceleration
G29       ; start auto-leveling sequence
M420 S1   ; activate bed level matrix
M425 Z    ; use measured Z backlash for compensation
M425 Z F0 ; turn off measured Z backlash compensation. (if activated in the quality settings, this command will automatically be ignored)
M204 S500 ; restore standard acceleration
G1 X0 Y0 Z15 F5000 ; move up off last probe point
G4 S1 ; pause
M400 ; wait for moves to finish
M117 Heating... ; progress indicator message on LCD
M109 R230 ; wait for extruder to reach printing temp
M190 R60.0 ; wait for bed to reach printing temp
G1 Z2 E0 F75 ; prime tiny bit of filament into the nozzle
M117 TAZ 6 Printing... ; progress indicator message on LCD

M221 S110 T0
G92 E0
G1 F600 E-6.5
;LAYER_COUNT:158
;LAYER:0
M107
G0 F1020 X97.943 Y112.106 Z0.2
;TYPE:SKIRT
G1 F600 E0
G1 F900 X123.255 Y86.815 E1.48076
G1 X123.469 Y86.618 E1.4928
G1 X125.822 Y84.619 E1.62057
G1 X126.273 Y84.293 E1.6436
G1 X128.955 Y82.651 E1.77374
G1 X129.458 Y82.395 E1.7971
G1 X132.379 Y81.186 E1.92792
G1 X132.959 Y81.001 E1.95311
G1 X136.375 Y80.226 E2.09807
G1 X136.908 Y80.147 E2.12037
G1 X139.777 Y79.936 E2.23942
G1 X140.383 Y79.942 E2.2645
G1 X143.904 Y80.278 E2.41087
G1 X144.458 Y80.375 E2.43415
G1 X147.43 Y81.139 E2.56114
G1 X147.965 Y81.323 E2.58455
G1 X150.866 Y82.58 E2.71539
G1 X151.326 Y82.82 E2.73686
G1 X153.76 Y84.323 E2.85524
G1 X154.212 Y84.653 E2.8784
G1 X156.712 Y86.796 E3.01467
G1 X156.915 Y86.984 E3.02612
G1 X182.425 Y112.503 E4.51935
G1 X182.62 Y112.714 E4.53124
G1 X184.664 Y115.114 E4.66169
G1 X184.99 Y115.563 E4.68466
G1 X186.64 Y118.248 E4.81507
G1 X186.918 Y118.802 E4.84073
G1 X188.242 Y122.128 E4.98887
G1 X188.412 Y122.68 E5.01277
G1 X189.085 Y125.718 E5.14154
G1 X189.163 Y126.274 E5.16478
G1 X189.358 Y129.422 E5.2953
G1 X189.353 Y129.939 E5.3167
G1 X189.122 Y132.758 E5.43375
G1 X189.024 Y133.346 E5.45842
G1 X188.164 Y136.748 E5.60363
G1 X187.996 Y137.254 E5.6257
G1 X186.909 Y139.856 E5.74239
G1 X186.656 Y140.349 E5.76533
G1 X184.993 Y143.062 E5.89701
G1 X184.672 Y143.507 E5.91972
G1 X183.076 Y145.393 E6.02196
G1 X182.874 Y145.612 E6.03429
G1 X156.343 Y172.148 E7.58716
G1 X156.071 Y172.394 E7.60233
G1 X153.758 Y174.278 E7.72579
G1 X153.313 Y174.588 E7.74823
G1 X150.686 Y176.137 E7.87444
G1 X150.223 Y176.367 E7.89583
G1 X147.616 Y177.436 E8.01244
G1 X147.091 Y177.605 E8.03526
G1 X143.978 Y178.353 E8.16775
G1 X143.419 Y178.442 E8.19118
G1 X140.259 Y178.69 E8.32235
G1 X139.694 Y178.69 E8.34573
G1 X136.564 Y178.443 E8.47566
G1 X135.967 Y178.345 E8.5007
G1 X132.573 Y177.489 E8.64555
G1 X132.063 Y177.319 E8.6678
G1 X129.433 Y176.218 E8.78579
G1 X128.94 Y175.965 E8.80872
G1 X126.243 Y174.31 E8.93967
G1 X125.783 Y173.975 E8.96322
G1 X123.235 Y171.79 E9.10213
G1 X123.032 Y171.602 E9.11358
G1 X97.575 Y146.136 E10.6037
G1 X97.384 Y145.93 E10.61533
G1 X95.329 Y143.525 E10.74624
G1 X94.972 Y143.027 E10.7716
G1 X93.165 Y139.99 E10.91784
G1 X92.909 Y139.466 E10.94198
G1 X91.748 Y136.513 E11.07329
G1 X91.583 Y135.973 E11.09665
G1 X90.905 Y132.904 E11.22672
G1 X90.827 Y132.356 E11.24963
G1 X90.627 Y129.225 E11.37946
G1 X90.632 Y128.698 E11.40127
G1 X90.868 Y125.853 E11.51941
G1 X90.955 Y125.312 E11.54209
G1 X91.691 Y122.24 E11.67282
G1 X91.866 Y121.702 E11.69623
G1 X93.078 Y118.775 E11.82733
G1 X93.358 Y118.234 E11.85254
G1 X95.22 Y115.277 E11.99715
G1 X95.556 Y114.826 E12.02042
G1 X97.778 Y112.284 E12.16014
G1 X97.943 Y112.106 E12.17019
G1 F600 E5.67019
;MESH:
G0 F1020 X101.774 Y115.941
G0 X129.783 Y133.928
G0 X129.874 Y133.887
;TYPE:WALL-INNER
G1 F600 E12.17019
G1 F1020 X130.793 Y135.53 E12.24809
G1 X131.978 Y137 E12.32623
G1 X133.39 Y138.242 E12.40405
G1 X134.991 Y139.227 E12.48184
G1 X136.747 Y139.933 E12.56017
G1 X138.579 Y140.329 E12.63773
G1 X140.469 Y140.408 E12.71601
G1 X142.334 Y140.169 E12.79382
G1 X144.131 Y139.619 E12.87159
G1 X145.817 Y138.768 E12.94975
G1 X147.335 Y137.646 E13.02787
G1 X148.631 Y136.294 E13.10537
G1 X149.691 Y134.726 E13.1837
G1 X150.464 Y133.016 E13.26136
G1 X150.94 Y131.186 E13.33961
G1 X151.1 Y129.313 E13.4174
G1 X150.94 Y127.439 E13.49524
G1 X150.464 Y125.609 E13.57349
G1 X149.691 Y123.9 E13.65111
G1 X148.632 Y122.333 E13.72938
G1 X147.335 Y120.978 E13.807
G1 X145.816 Y119.857 E13.88512
G1 X144.133 Y119.006 E13.96317
G1 X142.332 Y118.456 E14.0411
G1 X140.469 Y118.217 E14.11883
G1 X138.585 Y118.297 E14.19686
G1 X136.743 Y118.693 E14.27483
G1 X134.991 Y119.398 E14.35299
G1 X133.39 Y120.384 E14.4308
G1 X131.979 Y121.625 E14.50856
G1 X130.793 Y123.094 E14.58669
G1 X129.874 Y124.739 E14.66467
G1 X129.245 Y126.518 E14.74276
G1 X128.928 Y128.37 E14.82051
G1 X128.928 Y130.255 E14.89852
G1 X129.245 Y132.107 E14.97628
G1 X129.874 Y133.887 E15.0544
G0 X130.971 Y133.391
;TYPE:WALL-OUTER
G1 X131.791 Y134.856 E15.12388
G1 X132.848 Y136.167 E15.19357
G1 X134.106 Y137.274 E15.26292
G1 X135.533 Y138.152 E15.33226
G1 X137.1 Y138.782 E15.40215
G1 X138.732 Y139.134 E15.47124
G1 X140.418 Y139.205 E15.54107
G1 X142.08 Y138.992 E15.61041
G1 X143.682 Y138.502 E15.67974
G1 X145.185 Y137.743 E15.74942
G1 X146.539 Y136.742 E15.8191
G1 X147.694 Y135.537 E15.88818
G1 X148.64 Y134.139 E15.95803
G1 X149.328 Y132.615 E16.02723
G1 X149.753 Y130.982 E16.09706
G1 X149.896 Y129.313 E16.16638
G1 X149.753 Y127.643 E16.23574
G1 X149.328 Y126.01 E16.30557
G1 X148.64 Y124.487 E16.37473
G1 X147.695 Y123.089 E16.44457
G1 X146.539 Y121.882 E16.51373
G1 X145.185 Y120.882 E16.58339
G1 X143.684 Y120.124 E16.65297
G1 X142.078 Y119.633 E16.72247
G1 X140.418 Y119.42 E16.79173
G1 X138.738 Y119.492 E16.86132
G1 X137.095 Y119.845 E16.93086
G1 X135.533 Y120.473 E17.00053
G1 X134.106 Y121.352 E17.06989
G1 X132.848 Y122.458 E17.13921
G1 X131.791 Y123.768 E17.20887
G1 X130.971 Y125.235 E17.27842
G1 X130.411 Y126.821 E17.34802
G1 X130.128 Y128.472 E17.41734
G1 X130.128 Y130.153 E17.48691
G1 X130.411 Y131.804 E17.55623
G1 X130.971 Y133.391 E17.62587
G0 X131.264 Y133.914
G0 X130.111 Y134.558
G0 X129.207 Y132.117
G0 X128.889 Y130.258
G0 X128.889 Y128.367
G0 X129.175 Y126.694
G0 X142.868 Y85.647
G0 X142.883 Y85.549
;TYPE:WALL-INNER
G1 X145.693 Y86.226 E17.74549
G1 X148.34 Y87.323 E17.86406
G1 X150.807 Y88.835 E17.9838
G1 X153.048 Y90.748 E18.10574
G1 X178.567 Y116.268 E19.59926
G1 X180.487 Y118.524 E19.72185
G1 X181.987 Y120.972 E19.84067
G1 X183.09 Y123.639 E19.9601
G1 X183.761 Y126.436 E20.07913
G1 X183.987 Y129.308 E20.19835
G1 X183.762 Y132.184 E20.31774
G1 X183.088 Y134.992 E20.43724
G1 X181.99 Y137.646 E20.5561
G1 X180.47 Y140.128 E20.67654
G1 X178.577 Y142.347 E20.79725
G1 X153.044 Y167.881 E22.29159
G1 X150.788 Y169.803 E22.41424
G1 X148.338 Y171.303 E22.53312
G1 X145.675 Y172.405 E22.65239
G1 X142.856 Y173.081 E22.77235
G1 X139.98 Y173.306 E22.89174
G1 X137.128 Y173.082 E23.01012
G1 X134.311 Y172.405 E23.13002
G1 X131.639 Y171.299 E23.24969
G1 X129.17 Y169.782 E23.36961
G1 X126.939 Y167.877 E23.49102
G1 X101.437 Y142.375 E24.98352
G1 X99.515 Y140.125 E25.10598
G1 X98.003 Y137.655 E25.22582
G1 X96.901 Y134.995 E25.34497
G1 X96.23 Y132.2 E25.46393
G1 X96.001 Y129.302 E25.58423
G1 X96.227 Y126.436 E25.7032
G1 X96.9 Y123.632 E25.82254
G1 X98.006 Y120.962 E25.94213
G1 X99.501 Y118.519 E26.06066
G1 X101.419 Y116.268 E26.18304
G1 X126.943 Y90.744 E27.67683
G1 X129.196 Y88.824 E27.79933
G1 X131.652 Y87.321 E27.91849
G1 X134.309 Y86.22 E28.03751
G1 X137.138 Y85.545 E28.15787
G1 X140.015 Y85.32 E28.27729
G1 X142.883 Y85.549 E28.39636
G0 X143.076 Y84.361
;TYPE:WALL-OUTER
G1 X146.065 Y85.081 E28.52359
G1 X148.884 Y86.249 E28.64987
G1 X151.516 Y87.862 E28.77761
G1 X153.868 Y89.87 E28.90559
G1 X179.447 Y115.45 E30.40263
G1 X181.46 Y117.815 E30.53115
G1 X183.06 Y120.426 E30.65788
G1 X184.235 Y123.269 E30.78518
G1 X184.949 Y126.245 E30.91183
G1 X185.19 Y129.308 E31.03898
G1 X184.95 Y132.375 E31.16629
G1 X184.233 Y135.364 E31.2935
G1 X183.063 Y138.192 E31.42015
G1 X181.443 Y140.837 E31.54851
G1 X179.453 Y143.169 E31.67537
G1 X153.869 Y168.754 E33.1727
G1 X151.493 Y170.778 E33.30186
G1 X148.882 Y172.377 E33.42857
G1 X146.047 Y173.55 E33.55553
G1 X143.046 Y174.269 E33.68324
G1 X139.98 Y174.509 E33.81051
G1 X136.937 Y174.27 E33.93683
G1 X133.938 Y173.55 E34.06446
G1 X131.096 Y172.373 E34.19176
G1 X128.459 Y170.753 E34.31984
G1 X126.119 Y168.755 E34.44717
G1 X100.56 Y143.196 E35.943
G1 X98.54 Y140.832 E36.07168
G1 X96.93 Y138.201 E36.19933
G1 X95.756 Y135.368 E36.32624
G1 X95.042 Y132.391 E36.45293
G1 X94.797 Y129.302 E36.58116
G1 X95.039 Y126.245 E36.70807
G1 X95.755 Y123.259 E36.83514
G1 X96.931 Y120.421 E36.96227
G1 X98.528 Y117.812 E37.08886
G1 X100.546 Y115.443 E37.21764
G1 X126.118 Y89.871 E38.71424
G1 X128.491 Y87.849 E38.84326
G1 X131.108 Y86.247 E38.97024
G1 X133.936 Y85.076 E39.0969
G1 X136.949 Y84.356 E39.2251
G1 X140.017 Y84.117 E39.35245
G1 X143.076 Y84.361 E39.47944
G0 X143.659 Y84.501
G0 X143.349 Y85.784
G0 X142.693 Y86.727
;TYPE:SKIN
G1 F1200 X145.326 Y87.362 E39.59153
G1 X147.794 Y88.385 E39.70209
G1 X150.106 Y89.801 E39.81429
G1 X152.247 Y91.629 E39.93079
G1 X177.689 Y117.072 E41.4198
G1 X179.52 Y119.224 E41.53673
G1 X180.926 Y121.518 E41.64808
G1 X181.954 Y124.002 E41.75933
G1 X182.583 Y126.624 E41.87092
G1 X182.793 Y129.308 E41.98233
G1 X182.584 Y131.996 E42.0939
G1 X181.952 Y134.626 E42.20584
G1 X180.928 Y137.102 E42.31672
G1 X179.502 Y139.429 E42.42966
G1 X177.701 Y141.541 E42.54453
G1 X152.244 Y166.999 E44.03442
G1 X150.085 Y168.838 E44.15179
G1 X147.794 Y170.241 E44.26296
G1 X145.309 Y171.269 E44.37425
G1 X142.668 Y171.903 E44.48665
G1 X139.98 Y172.112 E44.59822
G1 X137.316 Y171.904 E44.7088
G1 X134.677 Y171.269 E44.82113
G1 X132.185 Y170.238 E44.93273
G1 X129.872 Y168.817 E45.04507
G1 X127.74 Y166.996 E45.16111
G1 X102.318 Y141.574 E46.64892
G1 X100.48 Y139.422 E46.76604
G1 X99.067 Y137.113 E46.87806
G1 X98.037 Y134.626 E46.98946
G1 X97.408 Y132.012 E47.10073
G1 X97.195 Y129.302 E47.21322
G1 X97.405 Y126.624 E47.32438
G1 X98.036 Y124.001 E47.43603
G1 X99.07 Y121.503 E47.54791
G1 X100.466 Y119.222 E47.65858
G1 X102.301 Y117.068 E47.77568
G1 X127.743 Y91.626 E49.26467
G1 X129.899 Y89.789 E49.38188
G1 X132.194 Y88.385 E49.49322
G1 X134.674 Y87.357 E49.60432
G1 X137.329 Y86.723 E49.71728
G1 X140.013 Y86.514 E49.82869
G1 X142.693 Y86.727 E49.93995
G0 F1020 X140.52 Y117.023
G1 F1200 X138.434 Y117.113 E50.02635
G1 X136.394 Y117.551 E50.1127
G1 X134.453 Y118.331 E50.19927
G1 X132.68 Y119.424 E50.28546
G1 X131.117 Y120.798 E50.37158
G1 X129.803 Y122.425 E50.45813
G1 X128.785 Y124.247 E50.5445
G1 X128.089 Y126.217 E50.63096
G1 X127.738 Y128.269 E50.71711
G1 X127.738 Y130.356 E50.80348
G1 X128.089 Y132.408 E50.88963
G1 X128.786 Y134.379 E50.97615
G1 X129.803 Y136.198 E51.06239
G1 X131.115 Y137.827 E51.14895
G1 X132.68 Y139.202 E51.23516
G1 X134.453 Y140.294 E51.32133
G1 X136.396 Y141.075 E51.40799
G1 X138.428 Y141.513 E51.49402
G1 X140.52 Y141.602 E51.58067
G1 X142.586 Y141.337 E51.66687
G1 X144.577 Y140.727 E51.75304
G1 X146.444 Y139.785 E51.83958
G1 X148.124 Y138.542 E51.92607
G1 X149.56 Y137.044 E52.01194
G1 X150.734 Y135.309 E52.09863
G1 X151.59 Y133.414 E52.18468
G1 X152.117 Y131.388 E52.27132
G1 X152.294 Y129.313 E52.3575
G1 X152.117 Y127.237 E52.44372
G1 X151.59 Y125.211 E52.53035
G1 X150.734 Y123.317 E52.61637
G1 X149.562 Y121.583 E52.70298
G1 X148.124 Y120.081 E52.78903
G1 X146.443 Y118.84 E52.8755
G1 X144.579 Y117.898 E52.96193
G1 X142.584 Y117.288 E53.04826
G1 X140.52 Y117.023 E53.13438
G0 F1020 X149.217 Y89.82
G1 F1200 X179.485 Y120.088 E54.9058
G1 X179.697 Y120.3
G0 F1020 X181.244 Y123.544
G1 F1200 X145.765 Y88.065 E56.9822
G1 X145.553 Y87.853
G0 F1020 X143.392 Y87.389
G1 F1200 X181.92 Y125.917 E59.23704
G0 F1020 X182.2 Y127.895
G1 F1200 X141.412 Y87.107 E61.62415
G0 F1020 X139.634 Y87.025
G1 F1200 X182.282 Y129.673 E64.12011
G0 F1020 X182.16 Y131.248
G1 F1200 X138.059 Y87.147 E66.70111
G0 F1020 X136.604 Y87.389
G1 F1200 X181.92 Y132.705 E69.35322
G0 F1020 X181.59 Y134.073
G1 F1200 X135.234 Y87.717 E72.06619
G0 F1020 X133.984 Y88.163
G1 F1200 X181.143 Y135.323 E74.82618
G0 F1020 X180.647 Y136.523
G1 F1200 X132.784 Y88.66 E77.62735
G0 F1020 X131.685 Y89.259
G1 F1200 X180.046 Y137.619 E80.45764
G0 F1020 X179.402 Y138.672
G1 F1200 X130.632 Y89.902 E83.31189
G0 F1020 X129.657 Y90.625
G1 F1200 X178.683 Y139.65 E86.18109
G0 F1020 X177.901 Y140.566
G1 F1200 X128.741 Y91.406 E89.05817
G0 F1020 X127.842 Y92.204
G1 F1200 X177.1 Y141.462 E91.94098
G0 F1020 X176.252 Y142.31
G1 F1200 X126.994 Y93.053 E94.82376
G0 F1020 X126.145 Y93.901
G1 F1200 X175.403 Y143.159 E97.70657
G0 F1020 X174.554 Y144.007
G1 F1200 X125.297 Y94.75 E100.58932
G0 F1020 X124.448 Y95.598
G1 F1200 X173.706 Y144.856 E103.47213
G0 F1020 X172.857 Y145.705
G1 F1200 X151.913 Y124.76 E104.6979
G1 X151.701 Y124.548
G0 F1020 X152.584 Y127.128
G1 F1200 X172.009 Y146.553 E105.83474
G0 F1020 X171.16 Y147.402
G1 F1200 X152.746 Y128.987 E106.91245
G0 F1020 X152.664 Y130.602
G1 F1200 X170.312 Y148.25 E107.94529
G0 F1020 X169.463 Y149.099
G1 F1200 X152.434 Y132.069 E108.94194
G0 F1020 X152.083 Y133.416
G1 F1200 X168.615 Y149.947 E109.90944
G0 F1020 X167.766 Y150.796
G1 F1200 X151.576 Y134.606 E110.85695
G0 F1020 X151.017 Y135.743
G1 F1200 X166.918 Y151.644 E111.78756
G0 F1020 X166.069 Y152.493
G1 F1200 X150.333 Y136.756 E112.70853
G0 F1020 X149.586 Y137.706
G1 F1200 X165.221 Y153.341 E113.62356
G0 F1020 X164.372 Y154.19
G1 F1200 X148.756 Y138.574 E114.53749
G0 F1020 X147.837 Y139.352
G1 F1200 X163.524 Y155.038 E115.45553
G0 F1020 X162.675 Y155.887
G1 F1200 X146.861 Y140.073 E116.38104
G0 F1020 X145.759 Y140.668
G1 F1200 X161.827 Y156.735 E117.32139
G0 F1020 X160.978 Y157.584
G1 F1200 X144.612 Y141.218 E118.27921
G0 F1020 X143.313 Y141.616
G1 F1200 X160.129 Y158.432 E119.26336
G0 F1020 X159.281 Y159.281
G1 F1200 X141.908 Y141.908 E120.28011
G0 F1020 X140.379 Y142.076
G1 F1200 X158.432 Y160.129 E121.33665
G0 F1020 X157.584 Y160.978
G1 F1200 X138.605 Y141.999 E122.44739
G0 F1020 X136.495 Y141.586
G1 F1200 X156.735 Y161.827 E123.63196
